X:184
T:da Brig
L:1/8
R:Jig
M:6/8
K:D % 2 sharps
"D"d3 A3|"D"AFD D3|"D"d3 A2F|"D"D2g fef|\
"D"d3 A3|"D"AFD D2F|"Em"E2F G2A|"Em"B3 "A7"ABc:||\
"D"d2e f2d|"A"c2e ecA|"D"d2e f2d|"G"g3 f2g|\
"D"agf (g2e)|"Bm"f2d "A7"e2c|"D"d2A F2A|1:"G"B3 "A7"ABc:||2:"G"B3 "D"d3||

%  <A name="D1X185"></A>
